X:103
T:Money in Both Pockets. RH.103
R:Jig
S:Rev.R.Harrison's MS,c1815,Cumbria
O:England
A:Temple Sowerby,Cumbria
Z:vmp.Simon Wilson. Review PJH, 2008.
M:6/8
L:1/8
Q:3/8=120
K:D
|:A|d2F F>EF|ABA AGF|d2F F>EF|ABA gfe|!
d2F F>EF|ABA AGF|EFE EFG|BcB B2:|!
|:A|dfa afd|ceg ecA|dfa afd|(g3f2)a|!
agf bag|agf ede|fdB AFA|BcB B2:|

